assets/Detective/Medium-Dark/Flat/detective_flat_medium-dark.svg

<svg width="32" height="32" viewBox="0 0 32 32" fill="none" xmlns="http://www.w3.org/2000/svg">
<path d="M23 29.99L24.912 26.316L23 22C20.8841 20.0482 18.0529 19 15.0201 19C11.9673 19 9.12594 20.0282 7 22L5.48271 26.316L7 30H23V29.99Z" fill="#433B6B"/>
<path d="M7 22V30H3C3.15666 29.042 3.37598 28.1045 3.67885 27.1771L3.71018 27.0853C4.3577 25.0981 5.50653 23.3554 7 22Z" fill="#635994"/>
<path d="M26.3351 27.1472C26.626 28.0812 26.8545 29.0355 27 30H23V22C24.5169 23.3706 25.6909 25.1269 26.3351 27.1472Z" fill="#635994"/>
<path d="M15.006 19C13.6188 19 12.2795 19.1703 11 19.4909L13.3734 30H16.6694L19 19.4809C17.7205 19.1703 16.3812 19 15.006 19Z" fill="#F4F4F4"/>
<path d="M14.4563 24.2622L13.25 21.7866H16.75L15.5437 24.2622L16.5 30H13.5L14.4563 24.2622Z" fill="#F92F60"/>
<path d="M12.75 23.646L15 21.9596L17.25 23.646C17.5476 23.8694 17.9881 23.713 18.0595 23.3668L19 19H11L11.9405 23.3668C12.0119 23.713 12.4524 23.8694 12.75 23.646Z" fill="#E6E6E6"/>
<path d="M15 21.75C15 21.75 13 20.8333 13 19.5V17.75H17V19.5C17 20.8333 15 21.75 15 21.75Z" fill="#8B5C56"/>
<path d="M10.8044 17L13.5 29.9904V30H12.1424L7.03657 21.5293C6.86932 21.2402 6.9677 20.874 7.26284 20.7102L7.80392 20.4114C8.04002 20.2765 8.07937 19.9585 7.87278 19.785L5.66911 17.8673C5.32479 17.5589 5.54122 17 6.0036 17H10.8044Z" fill="#8D65C5"/>
<path d="M19.1989 17L16.5 29.9904V30H17.8494L22.9615 21.5293C23.129 21.2402 23.0305 20.874 22.735 20.7102L22.1932 20.4114C21.9569 20.2765 21.9174 19.9585 22.1243 19.785L24.3307 17.8673C24.6754 17.5589 24.4587 17 23.9958 17H19.1989Z" fill="#8D65C5"/>
<path d="M20.8616 6.97675C20.5312 6.39555 21.115 5.99319 20.5422 5.79201C19.9143 5.57965 19.3636 5.15493 19.0221 4.58492C18.5595 3.81372 17.7224 4.41727 16.7751 4.41727C16.4116 4.41727 16.0591 3.37783 15.7507 3.51195C15.3211 3.70195 14.8364 3.70195 14.4068 3.51195C14.0874 3.37783 13.7459 4.41727 13.3824 4.41727C12.4462 4.41727 11.62 3.79137 11.1574 4.54021C10.7939 5.1214 10.2542 5.56847 9.60429 5.79201C8.99846 6.00437 8.78911 7.37911 8.46967 7.99383C7.99603 8.88797 7.7758 9.0221 8.31553 9.81565C8.50279 10.1062 8.61294 10.4527 8.61294 10.7992V15.4599C8.61294 16.4994 9.26282 17.4159 10.2321 17.7623L12.314 18.4888V10.1957C12.4792 10.0392 12.6114 9.84918 12.7326 9.63682C12.9198 9.31269 13.03 8.95504 13.063 8.60856C13.1621 8.61973 13.2723 8.63091 13.3714 8.63091C14.0213 8.63091 14.6161 8.3962 15.0677 7.99383C15.5304 8.38502 16.1142 8.63091 16.764 8.63091C16.8742 8.63091 16.9733 8.61973 17.0725 8.60856C17.1165 8.96621 17.2157 9.31269 17.4029 9.63682C17.5241 9.84918 17.6673 10.028 17.8215 10.1957V18.5L19.9033 17.7735C20.8726 17.4382 21.5225 16.5105 21.5225 15.4711V10.8104C21.5225 10.4639 21.6327 10.1174 21.831 9.82682C22.4037 8.99974 21.3793 7.89324 20.8616 6.97675Z" fill="#2D242D"/>
<path d="M11.5 12.8467C11.5 13.8132 10.7165 14.5967 9.75 14.5967C8.7835 14.5967 8 13.8132 8 12.8467C8 11.8802 8.7835 11.0967 9.75 11.0967C10.7165 11.0967 11.5 11.8802 11.5 12.8467Z" fill="#8B5C56"/>
<path d="M22 12.8467C22 13.8132 21.2165 14.5967 20.25 14.5967C19.2835 14.5967 18.5 13.8132 18.5 12.8467C18.5 11.8802 19.2835 11.0967 20.25 11.0967C21.2165 11.0967 22 11.8802 22 12.8467Z" fill="#8B5C56"/>
<path d="M16.2192 5H13.7713C11.0289 5 8.96692 7.26756 9.2818 10.0769L9.68809 16.3077C9.97249 18.4247 11.8008 20 13.9643 20H15.0004H16.0364C18.1999 20 20.0282 18.4247 20.3126 16.3077L20.7088 10.0769C21.0744 7.38796 18.9617 5 16.2192 5Z" fill="#966661"/>
<path d="M11.0097 12.5565C11.1697 11.8865 11.7697 11.3965 12.4897 11.3965C13.2397 11.3965 13.8597 11.9265 13.9897 12.6265C14.0197 12.7865 13.8997 12.9265 13.7397 12.9265H11.2997C11.1097 12.9265 10.9597 12.7465 11.0097 12.5565Z" fill="white"/>
<path d="M19.2097 12.5565C19.0497 11.8865 18.4497 11.3965 17.7297 11.3965C16.9897 11.3965 16.3697 11.9265 16.2297 12.6265C16.1997 12.7865 16.3197 12.9265 16.4797 12.9265H18.9197C19.1097 12.9265 19.2597 12.7465 19.2097 12.5565Z" fill="white"/>
<path d="M11.7397 12.6665C11.7397 12.1265 12.1797 11.6865 12.7197 11.6865C13.2597 11.6865 13.6997 12.1265 13.7097 12.6665C13.7097 12.7565 13.6897 12.8465 13.6697 12.9265H11.7797C11.7497 12.8465 11.7397 12.7565 11.7397 12.6665Z" fill="#7D4533"/>
<path d="M18.4897 12.6665C18.4897 12.1265 18.0497 11.6865 17.5097 11.6865C16.9697 11.6865 16.5297 12.1265 16.5197 12.6665C16.5197 12.7565 16.5397 12.8465 16.5597 12.9265H18.4497C18.4797 12.8465 18.4897 12.7565 18.4897 12.6665Z" fill="#7D4533"/>
<path d="M12.7197 12.1064C13.0297 12.1064 13.2797 12.3564 13.2797 12.6664C13.2797 12.7564 13.2497 12.8464 13.2097 12.9264H12.2197C12.1797 12.8464 12.1597 12.7564 12.1597 12.6664C12.1597 12.3564 12.4097 12.1064 12.7197 12.1064Z" fill="black"/>
<path d="M17.5097 12.1064C17.1997 12.1064 16.9497 12.3564 16.9497 12.6664C16.9497 12.7564 16.9697 12.8464 17.0197 12.9264H18.0097C18.0497 12.8464 18.0697 12.7564 18.0697 12.6664C18.0697 12.3564 17.8197 12.1064 17.5097 12.1064Z" fill="black"/>
<path d="M12.5497 12.2764C12.5497 12.3703 12.4736 12.4464 12.3797 12.4464C12.2858 12.4464 12.2097 12.3703 12.2097 12.2764C12.2097 12.1826 12.2858 12.1064 12.3797 12.1064C12.4736 12.1064 12.5497 12.1826 12.5497 12.2764Z" fill="white"/>
<path d="M17.3697 12.2764C17.3697 12.3703 17.2936 12.4464 17.1997 12.4464C17.1058 12.4464 17.0297 12.3703 17.0297 12.2764C17.0297 12.1826 17.1058 12.1064 17.1997 12.1064C17.2936 12.1064 17.3697 12.1826 17.3697 12.2764Z" fill="white"/>
<path d="M14.5944 12.5977L14.0279 14.4924C13.9086 14.8859 14.1869 15.2793 14.5845 15.2793H15.4194C15.8071 15.2793 16.0854 14.8859 15.976 14.4924L15.4095 12.5977C15.2902 12.1732 14.7236 12.1732 14.5944 12.5977Z" fill="#75443E"/>
<path d="M15.0088 16.4028C14.3776 16.4028 13.7791 16.2633 13.2786 16.024C13.1045 15.9443 12.9304 16.1237 13.0283 16.2633C13.4418 16.8513 14.1709 17.25 14.9979 17.25C15.8249 17.25 16.554 16.8613 16.9675 16.2633C17.0763 16.1138 16.8913 15.9343 16.7172 16.024C16.2384 16.2633 15.6399 16.4028 15.0088 16.4028Z" fill="#990838"/>
<path d="M27.5 22C28.0514 22 28.5 22.4091 28.5 22.9119V25H26.5V22.9119C26.5 22.4091 26.9486 22 27.5 22Z" fill="#8B5C56"/>
<path d="M25.75 20C27.4069 20 28.75 18.6569 28.75 17C28.75 15.3431 27.4069 14 25.75 14C24.0931 14 22.75 15.3431 22.75 17C22.75 18.6569 24.0931 20 25.75 20Z" fill="#00D1ED"/>
<path d="M24.8609 20.3851C23.362 19.9896 22.25 18.6195 22.25 17C22.25 15.0735 23.8235 13.5 25.75 13.5C27.6765 13.5 29.25 15.0735 29.25 17C29.25 18.6195 28.138 19.9896 26.6391 20.3851C26.862 20.6183 27 20.9382 27 21.29V24.49C27 25.2 26.438 25.78 25.75 25.78C25.062 25.78 24.5 25.2 24.5 24.49V21.29C24.5 20.9382 24.638 20.6183 24.8609 20.3851ZM22.9964 17C22.9964 18.5231 24.2269 19.7536 25.75 19.7536C27.2731 19.7536 28.5036 18.5231 28.5036 17C28.5036 15.4769 27.263 14.2464 25.75 14.2464C24.237 14.2464 22.9964 15.4769 22.9964 17Z" fill="#321B41"/>
<path d="M26.625 17.25C27.1083 17.25 27.5 16.8582 27.5 16.375C27.5 15.8918 27.1083 15.5 26.625 15.5C26.1418 15.5 25.75 15.8918 25.75 16.375C25.75 16.8582 26.1418 17.25 26.625 17.25Z" fill="#F4F4F4"/>
<path d="M23.8634 24.0214C23.4059 24.0214 23.0213 24.3843 23.0005 24.8434C22.9901 25.153 23.146 25.4306 23.3747 25.5801C23.146 25.7295 23.0005 25.9964 23.0005 26.2954C23.0005 26.5943 23.146 26.8505 23.3747 27.0107C23.146 27.1601 23.0005 27.427 23.0005 27.726C23.0005 28.0249 23.146 28.2811 23.3747 28.4413C23.146 28.6014 22.9901 28.8683 23.0005 29.1779C23.0109 29.6477 23.4059 30 23.8634 30H27.5332C28.0634 30 28.5 29.5623 28.5 29.0071V24.9929C28.5 24.4484 28.0738 24 27.5332 24H23.8634V24.0214Z" fill="#966661"/>
<path d="M20.5073 3.74641L21.2249 5.79365L21.3127 6.04519L20.5073 7.14924L21.9946 8L24.12 8C24.8924 8 25.294 8.91734 24.7482 9.46169C23.3579 10.873 21.4013 11.75 19.2387 11.75H10.7634C8.60084 11.75 6.64421 10.873 5.25397 9.46169C4.70817 8.91734 5.0995 8 5.88215 8L7.99463 8L9.4716 7.0226L8.67657 6.04519L8.76432 5.79365L9.4716 3.74641C10.1165 2.11287 12.0615 1.49764 13.4969 2.45231C14.4018 3.05693 15.5771 3.05693 16.482 2.45231C17.9278 1.49764 19.8624 2.12348 20.5073 3.74641Z" fill="#433B6B"/>
<path d="M13.6582 8H16.3418H22L21.3 6H8.7L8 8H13.6582Z" fill="#321B41"/>
</svg>

<svg xmlns="http://www.w3.org/2000/svg" width="32" height="32" fill="none"><path fill="#433B6B" d="m23 29.99 1.912-3.674L23 22c-2.116-1.952-4.947-3-7.98-3-3.053 0-5.894 1.028-8.02 3l-1.517 4.316L7 30h16v-.01Z"/><path fill="#635994" d="M7 22v8H3c.157-.958.376-1.895.679-2.823l.031-.092A11.804 11.804 0 0 1 7 22ZM26.335 27.147c.291.934.52 1.889.665 2.853h-4v-8a11.752 11.752 0 0 1 3.335 5.147Z"/><path fill="#F4F4F4" d="M15.006 19c-1.387 0-2.726.17-4.006.49L13.373 30h3.296L19 19.48c-1.28-.31-2.619-.48-3.994-.48Z"/><path fill="#F92F60" d="m14.456 24.262-1.206-2.475h3.5l-1.206 2.475L16.5 30h-3l.956-5.738Z"/><path fill="#E6E6E6" d="M12.75 23.646 15 21.96l2.25 1.686c.298.223.738.067.81-.28L19 19h-8l.94 4.367c.072.346.512.502.81.279Z"/><path fill="#8B5C56" d="M15 21.75s-2-.917-2-2.25v-1.75h4v1.75c0 1.333-2 2.25-2 2.25Z"/><path fill="#8D65C5" d="M10.804 17 13.5 29.99V30h-1.358l-5.105-8.47a.592.592 0 0 1 .226-.82l.54-.299c.237-.135.276-.453.07-.626l-2.204-1.918A.495.495 0 0 1 6.004 17h4.8ZM19.199 17 16.5 29.99V30h1.35l5.111-8.47a.592.592 0 0 0-.226-.82l-.542-.299c-.236-.135-.276-.453-.069-.626l2.207-1.918a.495.495 0 0 0-.335-.867h-4.797Z"/><path fill="#2D242D" d="M20.862 6.977c-.33-.581.253-.984-.32-1.185a2.827 2.827 0 0 1-1.52-1.207c-.462-.771-1.3-.168-2.247-.168-.363 0-.716-1.04-1.024-.905-.43.19-.915.19-1.344 0-.32-.134-.661.905-1.025.905-.936 0-1.762-.626-2.225.123a2.98 2.98 0 0 1-1.553 1.252c-.606.212-.815 1.587-1.134 2.202-.474.894-.694 1.028-.154 1.822.187.29.297.637.297.983v4.66c0 1.04.65 1.957 1.62 2.303l2.081.727v-8.293c.165-.157.297-.347.419-.56.187-.323.297-.681.33-1.027.1.01.21.022.308.022.65 0 1.245-.235 1.697-.637a2.614 2.614 0 0 0 1.696.637c.11 0 .21-.011.309-.022a2.68 2.68 0 0 0 .748 1.587V18.5l2.082-.727a2.43 2.43 0 0 0 1.62-2.302v-4.66c0-.347.11-.694.308-.984.573-.827-.452-1.934-.97-2.85Z"/><path fill="#8B5C56" d="M11.5 12.847a1.75 1.75 0 1 1-3.5 0 1.75 1.75 0 0 1 3.5 0ZM22 12.847a1.75 1.75 0 1 1-3.5 0 1.75 1.75 0 0 1 3.5 0Z"/><path fill="#966661" d="M16.22 5H13.77c-2.742 0-4.804 2.268-4.49 5.077l.407 6.23C9.972 18.426 11.801 20 13.964 20h2.072c2.164 0 3.992-1.575 4.277-3.692l.396-6.231C21.074 7.388 18.962 5 16.219 5Z"/><path fill="#fff" d="M11.01 12.556c.16-.67.76-1.16 1.48-1.16.75 0 1.37.53 1.5 1.23.03.16-.09.3-.25.3H11.3c-.19 0-.34-.18-.29-.37ZM19.21 12.556c-.16-.67-.76-1.16-1.48-1.16-.74 0-1.36.53-1.5 1.23-.03.16.09.3.25.3h2.44c.19 0 .34-.18.29-.37Z"/><path fill="#7D4533" d="M11.74 12.666c0-.54.44-.98.98-.98s.98.44.99.98c0 .09-.02.18-.04.26h-1.89a.746.746 0 0 1-.04-.26ZM18.49 12.666c0-.54-.44-.98-.98-.98s-.98.44-.99.98c0 .09.02.18.04.26h1.89c.03-.08.04-.17.04-.26Z"/><path fill="#000" d="M12.72 12.106c.31 0 .56.25.56.56 0 .09-.03.18-.07.26h-.99a.583.583 0 0 1-.06-.26c0-.31.25-.56.56-.56ZM17.51 12.106a.56.56 0 0 0-.56.56c0 .09.02.18.07.26h.99c.04-.08.06-.17.06-.26a.56.56 0 0 0-.56-.56Z"/><path fill="#fff" d="M12.55 12.276a.17.17 0 1 1-.34 0 .17.17 0 0 1 .34 0ZM17.37 12.276a.17.17 0 1 1-.34 0 .17.17 0 0 1 .34 0Z"/><path fill="#75443E" d="m14.594 12.598-.566 1.894c-.12.394.159.787.556.787h.835c.388 0 .666-.393.557-.787l-.567-1.894a.42.42 0 0 0-.815 0Z"/><path fill="#990838" d="M15.009 16.403a4.04 4.04 0 0 1-1.73-.379c-.175-.08-.349.1-.25.24.413.587 1.142.986 1.969.986.827 0 1.556-.389 1.97-.987.108-.15-.077-.329-.25-.239a3.872 3.872 0 0 1-1.71.379Z"/><path fill="#8B5C56" d="M27.5 22c.551 0 1 .41 1 .912V25h-2v-2.088c0-.503.449-.912 1-.912Z"/><path fill="#00D1ED" d="M25.75 20a3 3 0 1 0 0-6 3 3 0 0 0 0 6Z"/><path fill="#321B41" d="M24.86 20.385A3.512 3.512 0 0 1 22.25 17c0-1.927 1.573-3.5 3.5-3.5s3.5 1.573 3.5 3.5c0 1.62-1.112 2.99-2.61 3.385.222.233.36.553.36.905v3.2c0 .71-.562 1.29-1.25 1.29s-1.25-.58-1.25-1.29v-3.2c0-.352.138-.672.36-.905ZM22.997 17a2.75 2.75 0 0 0 2.754 2.754A2.75 2.75 0 0 0 28.504 17a2.757 2.757 0 0 0-2.754-2.754A2.757 2.757 0 0 0 22.996 17Z"/><path fill="#F4F4F4" d="M26.625 17.25a.875.875 0 1 0 0-1.75.875.875 0 0 0 0 1.75Z"/><path fill="#966661" d="M23.863 24.021a.866.866 0 0 0-.863.822.85.85 0 0 0 .375.737.85.85 0 0 0-.375.715c0 .3.146.555.375.716a.85.85 0 0 0-.375.715c0 .299.146.555.375.715A.852.852 0 0 0 23.864 30h3.67c.53 0 .966-.438.966-.993v-4.014a.978.978 0 0 0-.967-.993h-3.67v.021Z"/><path fill="#433B6B" d="m20.507 3.746.718 2.048.088.251-.806 1.104L21.995 8h2.125c.772 0 1.174.917.628 1.462a7.713 7.713 0 0 1-5.51 2.288h-8.475a7.713 7.713 0 0 1-5.509-2.288C4.708 8.917 5.1 8 5.882 8h2.113l1.477-.977-.795-.978.087-.251.708-2.048c.645-1.633 2.59-2.248 4.025-1.294.905.605 2.08.605 2.985 0 1.446-.954 3.38-.329 4.025 1.294Z"/><path fill="#321B41" d="M13.658 8H22l-.7-2H8.7L8 8h5.658Z"/></svg>
